X: 2431
T: Ballinalacken, The
R: reel
M: 4/4
K: Edorian
Beed Beed|Befd Adfd|Beed Beed|BADE FEEA|
Beed Beed|Befd BAFD|~G2 GF GBdB|AFDE FEEF||
~G2GF GBdB|GBdB AFDG|~G2GF GBdB|AFDE FEEF|
~G2GF GBdB|GBdB AFDF|EFGA (3Bcd ef|dBAF EFGA||

